X:1
T:Christmas Morn (Hopkins), 76.76 D
T:Edward John Hopkins (1818-1901)
T:Christmas Morn (Hopkins), 76.76 D
T:Public Domain
C:Edward John Hopkins (1818-1901)
Z:Public Domain
%%score ( 1 2 ) 3
L:1/8
M:6/4
K:F
V:1 treble 
V:2 treble 
V:3 bass 
V:1
 [CF]2 | [FA]4 [FA]2 [FA]2 [EG]2 [FA]2 | [Fc]6 [FA]4 F2 | [FG]4 [FG]2 [EG]2 [DF]2 [EG]2 | %4
 [FA]6- [FA]4 [CF]2 | [FA]4 [FA]2 [FA]2 [EG]2 [FA]2 | [Gc]6 [CE]4 [DF]2 | %7
 [EG]4 [EA]2 =B2 A2 [FB]2 | [Ec]6- [Ec]4 [Ec]2 | [Ec]4 [Ec]2 [Ge]2 [Fd]2 [Ec]2 | [Fc]6 [FA]4 F2 | %11
 [Fd]4 [DF]2 [EG]2 [DF]2 [EG]2 | [^CA]6- [CA]4 [EG]2 | [DF]4 [DF]2 F2 G2 [=EF]2 | %14
 [Dd]6 [DF]4 [FG]2 | [FA]4 [FA]2 [EG]2 [DF]2 [EG]2 | F12 |] %17
V:2
 x2 | x12 | x12 | x12 | x12 | x12 | x12 | x6 F4 x2 | x12 | x12 | x12 | x12 | x12 | x6 _E4 x2 | %14
 x12 | x12 | F12 |] %17
V:3
 [F,A,]2 | [F,C]4 [F,C]2 [D,D]4 [D,D]2 | [A,,C]6 [A,,C]4 [D,A,]2 | [B,,D]4 [B,,D]2 [C,C]4 [C,C]2 | %4
 [F,C]6- [F,C]4 [F,A,]2 | [F,C]4 [F,C]2 [D,D]4 [D,D]2 | [E,C]6 [A,E]4 [A,D]2 | %7
 [G,C]4 [G,C]2 [G,D]4 [G,D]2 | [C,C]6- [C,C]4 C2 | [G,B,]4 [G,B,]2 [C,B,]4 [C,B,]2 | %10
 [F,A,]6 [F,C]4 [F,A,]2 | [B,,B,]4 [B,,B,]2 [B,,G,]4 [B,,G,]2 | [A,,E,]6- [A,,E,]4 [^C,A,]2 | %13
 [D,A,]4 [D,A,]2 [C,A,]4 [C,A,]2 | [B,,F,]6 [B,,B,]4 [B,,D]2 | [C,C]4 [C,C]2 [C,B,]4 [C,B,]2 | %16
 [F,,F,A,]12 |] %17

